src/assets/seta-clara.svg

<svg height="49.067383" viewBox="0 0 33.597962 49.067383" width="33.597961" xmlns="http://www.w3.org/2000/svg" xmlns:xlink="http://www.w3.org/1999/xlink"><clipPath id="a"><path d="m0 500h500v-500h-500z"/></clipPath><g clip-path="url(#a)" transform="matrix(1.3333333 0 0 -1.3333333 -562.30957 150.69041)"><path d="m0 0c-2.201-2.201-2.201-5.77 0-7.97l4.208-4.209c.646-.645.188-1.747-.724-1.747h-32.916c-3.113 0-5.636-2.523-5.636-5.636 0-3.112 2.523-5.636 5.636-5.636h32.916c.912 0 1.369-1.102.724-1.746l-4.208-4.209c-2.201-2.201-2.201-5.769 0-7.97s5.77-2.201 7.971 0l16.299 16.299c1.801 1.802 1.801 4.723 0 6.524l-16.299 16.3c-2.201 2.201-5.77 2.201-7.971 0" fill="#404040" transform="translate(311.6426 374.3633)"/><path d="m0 0v-15.941l23.547 23.546-23.547 23.548v-15.942-1.969h-36.15v-11.272h36.15z" fill="#ed4f44" transform="translate(424.7412 347.1958)"/><path d="m0 0-7.73 7.731 18 18-18 18 7.73 7.731 25.731-25.731z" fill="#404040" transform="translate(53.4756 238.5225)"/><path d="m0 0-7.73 7.731 18 18-18 18 7.73 7.731 25.731-25.731z" fill="#404040" transform="translate(80.6514 238.5225)"/><path d="m0 0h-15.462l16.399-16.399-16.399-16.399h15.462l16.399 16.399z" fill="#ed4f44" transform="translate(177.9121 280.6528)"/><path d="m0 0h-15.462l16.399-16.399-16.399-16.399h15.462l16.399 16.399z" fill="#ed4f44" transform="translate(205.0879 280.6528)"/><path d="m0 0c-4.87 0-7.31-5.888-3.865-9.332l6.153-6.153c.505-.505.505-1.323 0-1.828l-6.153-6.153c-3.445-3.444-1.005-9.332 3.865-9.332 1.45 0 2.84.575 3.865 1.601l13.885 13.884c.504.505.504 1.323 0 1.828l-13.885 13.884c-1.025 1.025-2.415 1.601-3.865 1.601" fill="#18b8c4" transform="translate(287.0059 280.6528)"/><path d="m0 0c-4.87 0-7.31-5.888-3.865-9.332l6.153-6.153c.505-.505.505-1.323 0-1.828l-6.153-6.153c-3.445-3.444-1.005-9.332 3.865-9.332 1.45 0 2.84.575 3.865 1.601l13.885 13.884c.504.505.504 1.323 0 1.828l-13.885 13.884c-1.025 1.025-2.415 1.601-3.865 1.601" fill="#18b8c4" transform="translate(314.1816 280.6528)"/><path d="m0 0v-13.745-18.258-13.746l22.874 22.875z" fill="#404040" transform="translate(399.0645 287.1279)"/><path d="m0 0v-13.745-18.258-13.746l22.874 22.875z" fill="#404040" transform="translate(427.6406 287.1279)"/><path d="m0 0-4.95 4.949 14.585 14.586-14.585 14.586 4.95 4.949 19.534-19.535z" fill="#18b8c4" transform="translate(196.9966 75.082)"/><path d="m0 0-4.949 4.949 7.666 7.666-7.666 7.666 4.949 4.949 12.617-12.615z" fill="#18b8c4" transform="translate(184.8115 82.002)"/><path d="m0 0 16.257 19.52-16.257 19.519 26.096-19.519z" fill="#404040" transform="translate(302.8164 75.0977)"/><path d="m0 0 16.257 19.52-16.256 19.519 26.095-19.519z" fill="#404040" transform="translate(284.9258 75.0977)"/><path d="m0 0v-3.348c0-.898.423-1.744 1.143-2.281l14.393-10.767c.585-.438.585-1.317 0-1.754l-14.393-10.766c-.72-.539-1.144-1.385-1.144-2.283v-3.348c0-.926 1.058-1.455 1.799-.9l22.858 17.097c.719.538.719 1.616 0 2.153l-22.857 17.097c-.742.557-1.799.026-1.799-.9" fill="#1d267d" transform="translate(421.7354 111.8906)"/><path d="m0 0 5.177-3.873c.718-.537.718-1.615 0-2.152l-5.176-3.871c-.742-.555-1.799-.026-1.799.902l-.002 8.092c0 .927 1.058 1.457 1.8.902" fill="#1d267d" transform="translate(423.5322 99.5664)"/><path d="m0 0 12.74 12.74-12.74 12.74h21.03l12.741-12.74-12.741-12.74z" fill="#ed4f44" transform="translate(45.2402 81.877)"/><path d="m0 0 12.741 12.74-12.741 12.74h9.131l12.74-12.74-12.74-12.74z" fill="#ed4f44" transform="translate(73.6426 81.877)"/><path d="m0 0 12.74 12.74-12.74 12.74h9.13l12.741-12.74-12.741-12.74z" fill="#ed4f44" transform="translate(89.2324 81.877)"/><g fill="#18b8c4"><path d="m0 0-4.216-4.215 9.022-9.023h-24.532v-5.965h24.532l-9.022-9.022 4.216-4.216 16.222 16.22z" transform="translate(92.4092 192.7871)"/><path d="m58.198 173.584h9.4v5.965h-9.4z"/><path d="m47.713 173.584h4.953v5.965h-4.953z"/><path d="m0 0-19.057 19.057v-16.075h-14.769v-5.964h14.769v-16.075z" transform="translate(455.2363 176.5664)"/><path d="m406.925 173.584h9.4v5.965h-9.4z"/><path d="m396.438 173.584h4.953v5.965h-4.953z"/></g><path d="m0 0-11.68 11.68c-1.141 1.14-3.019 1.31-4.219.228-1.28-1.15-1.319-3.123-.117-4.326l5.294-5.295c.598-.598.175-1.619-.671-1.619h-19.089c-1.616 0-3.062-1.209-3.147-2.822-.09-1.719 1.277-3.143 2.978-3.143h19.258c.846 0 1.269-1.021.671-1.619l-5.174-5.176c-1.142-1.14-1.31-3.019-.23-4.219 1.152-1.279 3.125-1.318 4.327-.117l11.799 11.799c1.278 1.279 1.278 3.352 0 4.629" fill="#ed4f44" transform="translate(335.7422 178.8809)"/><path d="m0 0h-3.437c-1.646 0-2.982-1.336-2.982-2.982 0-1.647 1.336-2.983 2.982-2.983h3.437c1.646 0 2.981 1.336 2.981 2.983 0 1.646-1.335 2.982-2.981 2.982" fill="#ed4f44" transform="translate(294.042 179.5488)"/><path d="m0 0h-.321c-1.647 0-2.982-1.336-2.982-2.982 0-1.647 1.335-2.983 2.982-2.983h.321c1.647 0 2.981 1.336 2.981 2.983 0 1.646-1.334 2.982-2.981 2.982" fill="#ed4f44" transform="translate(280.4404 179.5488)"/><g fill="#404040"><path d="m0 0h-9.029l9.556-9.557h-24.646v-5.964h24.646l-9.556-9.557h9.029l12.54 12.539z" transform="translate(212.709 189.1055)"/><path d="m174.104 173.584h9.4v5.965h-9.4z"/><path d="m163.618 173.584h4.953v5.965h-4.953z"/></g></g></svg>

<?xml version="1.0" encoding="UTF-8" standalone="no"?>
<!-- Created with Inkscape (http://www.inkscape.org/) -->

<svg
   version="1.1"
   id="svg18"
   width="33.597961"
   height="49.067383"
   viewBox="0 0 33.597962 49.067383"
   sodipodi:docname="109327-ONODMZ-365.ai"
   xmlns:inkscape="http://www.inkscape.org/namespaces/inkscape"
   xmlns:sodipodi="http://sodipodi.sourceforge.net/DTD/sodipodi-0.dtd"
   xmlns="http://www.w3.org/2000/svg"
   xmlns:svg="http://www.w3.org/2000/svg">
  <defs
     id="defs22">
    <clipPath
       clipPathUnits="userSpaceOnUse"
       id="clipPath44">
      <path
         d="M 0,500 H 500 V 0 H 0 Z"
         id="path42" />
    </clipPath>
  </defs>
  <sodipodi:namedview
     id="namedview20"
     pagecolor="#ffffff"
     bordercolor="#000000"
     borderopacity="0.25"
     inkscape:showpageshadow="2"
     inkscape:pageopacity="0.0"
     inkscape:pagecheckerboard="0"
     inkscape:deskcolor="#d1d1d1"
     showgrid="false" />
  <g
     id="g26"
     inkscape:groupmode="layer"
     inkscape:label="Page 1"
     transform="matrix(1.3333333,0,0,-1.3333333,-562.30957,150.69041)">
    <g
       id="g38">
      <g
         id="g40"
         clip-path="url(#clipPath44)">
        <g
           id="g46"
           transform="translate(311.6426,374.3633)">
          <path
             d="m 0,0 v 0 c -2.201,-2.201 -2.201,-5.77 0,-7.97 l 4.208,-4.209 c 0.646,-0.645 0.188,-1.747 -0.724,-1.747 h -32.916 c -3.113,0 -5.636,-2.523 -5.636,-5.636 0,-3.112 2.523,-5.636 5.636,-5.636 H 3.484 c 0.912,0 1.369,-1.102 0.724,-1.746 L 0,-31.153 c -2.201,-2.201 -2.201,-5.769 0,-7.97 2.201,-2.201 5.77,-2.201 7.971,0 l 16.299,16.299 c 1.801,1.802 1.801,4.723 0,6.524 L 7.971,0 C 5.77,2.201 2.201,2.201 0,0"
             style="fill:#404040;fill-opacity:1;fill-rule:nonzero;stroke:none"
             id="path48" />
        </g>
        <g
           id="g50"
           transform="translate(424.7412,347.1958)">
          <path
             d="M 0,0 V -15.941 L 23.547,7.605 0,31.153 V 15.211 13.242 H -36.15 V 1.97 H 0 Z"
             style="fill:#ed4f44;fill-opacity:1;fill-rule:nonzero;stroke:none"
             id="path52" />
        </g>
        <g
           id="g54"
           transform="translate(53.4756,238.5225)">
          <path
             d="m 0,0 -7.73,7.731 18,18 -18,18 L 0,51.462 25.731,25.731 Z"
             style="fill:#404040;fill-opacity:1;fill-rule:nonzero;stroke:none"
             id="path56" />
        </g>
        <g
           id="g58"
           transform="translate(80.6514,238.5225)">
          <path
             d="m 0,0 -7.73,7.731 18,18 -18,18 L 0,51.462 25.731,25.731 Z"
             style="fill:#404040;fill-opacity:1;fill-rule:nonzero;stroke:none"
             id="path60" />
        </g>
        <g
           id="g62"
           transform="translate(177.9121,280.6528)">
          <path
             d="M 0,0 H -15.462 L 0.937,-16.399 -15.462,-32.798 H 0 l 16.399,16.399 z"
             style="fill:#ed4f44;fill-opacity:1;fill-rule:nonzero;stroke:none"
             id="path64" />
        </g>
        <g
           id="g66"
           transform="translate(205.0879,280.6528)">
          <path
             d="M 0,0 H -15.462 L 0.937,-16.399 -15.462,-32.798 H 0 l 16.399,16.399 z"
             style="fill:#ed4f44;fill-opacity:1;fill-rule:nonzero;stroke:none"
             id="path68" />
        </g>
        <g
           id="g70"
           transform="translate(287.0059,280.6528)">
          <path
             d="m 0,0 v 0 c -4.87,0 -7.31,-5.888 -3.865,-9.332 l 6.153,-6.153 c 0.505,-0.505 0.505,-1.323 0,-1.828 l -6.153,-6.153 C -7.31,-26.91 -4.87,-32.798 0,-32.798 c 1.45,0 2.84,0.575 3.865,1.601 l 13.885,13.884 c 0.504,0.505 0.504,1.323 0,1.828 L 3.865,-1.601 C 2.84,-0.576 1.45,0 0,0"
             style="fill:#18b8c4;fill-opacity:1;fill-rule:nonzero;stroke:none"
             id="path72" />
        </g>
        <g
           id="g74"
           transform="translate(314.1816,280.6528)">
          <path
             d="m 0,0 v 0 c -4.87,0 -7.31,-5.888 -3.865,-9.332 l 6.153,-6.153 c 0.505,-0.505 0.505,-1.323 0,-1.828 l -6.153,-6.153 C -7.31,-26.91 -4.87,-32.798 0,-32.798 c 1.45,0 2.84,0.575 3.865,1.601 l 13.885,13.884 c 0.504,0.505 0.504,1.323 0,1.828 L 3.865,-1.601 C 2.84,-0.576 1.45,0 0,0"
             style="fill:#18b8c4;fill-opacity:1;fill-rule:nonzero;stroke:none"
             id="path76" />
        </g>
        <g
           id="g78"
           transform="translate(399.0645,287.1279)">
          <path
             d="m 0,0 v -13.745 -18.258 -13.746 l 22.874,22.875 z"
             style="fill:#404040;fill-opacity:1;fill-rule:nonzero;stroke:none"
             id="path80" />
        </g>
        <g
           id="g82"
           transform="translate(427.6406,287.1279)">
          <path
             d="m 0,0 v -13.745 -18.258 -13.746 l 22.874,22.875 z"
             style="fill:#404040;fill-opacity:1;fill-rule:nonzero;stroke:none"
             id="path84" />
        </g>
        <g
           id="g86"
           transform="translate(196.9966,75.082)">
          <path
             d="M 0,0 -4.95,4.949 9.635,19.535 -4.95,34.121 0,39.07 19.534,19.535 Z"
             style="fill:#18b8c4;fill-opacity:1;fill-rule:nonzero;stroke:none"
             id="path88" />
        </g>
        <g
           id="g90"
           transform="translate(184.8115,82.002)">
          <path
             d="M 0,0 -4.949,4.949 2.717,12.615 -4.949,20.281 0,25.23 12.617,12.615 Z"
             style="fill:#18b8c4;fill-opacity:1;fill-rule:nonzero;stroke:none"
             id="path92" />
        </g>
        <g
           id="g94"
           transform="translate(302.8164,75.0977)">
          <path
             d="M 0,0 V 0 L 16.257,19.52 0,39.039 26.096,19.52 Z"
             style="fill:#404040;fill-opacity:1;fill-rule:nonzero;stroke:none"
             id="path96" />
        </g>
        <g
           id="g98"
           transform="translate(284.9258,75.0977)">
          <path
             d="M 0,0 V 0 L 16.257,19.52 0.001,39.039 26.096,19.52 Z"
             style="fill:#404040;fill-opacity:1;fill-rule:nonzero;stroke:none"
             id="path100" />
        </g>
        <g
           id="g102"
           transform="translate(421.7354,111.8906)"
           inkscape:label="g102"
           style="display:inline;fill:#1d267d;fill-opacity:1">
          <path
             d="m 0,0 v -3.348 c 0,-0.898 0.423,-1.744 1.143,-2.281 l 14.393,-10.767 c 0.585,-0.438 0.585,-1.317 0,-1.754 L 1.143,-28.916 c -0.72,-0.539 -1.144,-1.385 -1.144,-2.283 v -3.348 c 0,-0.926 1.058,-1.455 1.799,-0.9 l 22.858,17.097 c 0.719,0.538 0.719,1.616 0,2.153 L 1.799,0.9 C 1.057,1.457 0,0.926 0,0"
             style="display:inline;fill:#1d267d;fill-opacity:1;fill-rule:nonzero;stroke:none"
             id="path104"
             inkscape:label="path104" />
        </g>
        <g
           id="g106"
           transform="translate(423.5322,99.5664)"
           inkscape:export-filename="../541293c3/seta.svg"
           inkscape:export-xdpi="96"
           inkscape:export-ydpi="96"
           style="fill:#1d267d;fill-opacity:1">
          <path
             d="m 0,0 5.177,-3.873 c 0.718,-0.537 0.718,-1.615 0,-2.152 L 0.001,-9.896 c -0.742,-0.555 -1.799,-0.026 -1.799,0.902 L -1.8,-0.902 C -1.8,0.025 -0.742,0.555 0,0"
             style="display:inline;fill:#1d267d;fill-opacity:1;fill-rule:nonzero;stroke:none"
             id="path108" />
        </g>
        <g
           id="g110"
           transform="translate(45.2402,81.877)">
          <path
             d="M 0,0 12.74,12.74 0,25.48 H 21.03 L 33.771,12.74 21.03,0 Z"
             style="fill:#ed4f44;fill-opacity:1;fill-rule:nonzero;stroke:none"
             id="path112" />
        </g>
        <g
           id="g114"
           transform="translate(73.6426,81.877)">
          <path
             d="M 0,0 12.741,12.74 0,25.48 H 9.131 L 21.871,12.74 9.131,0 Z"
             style="fill:#ed4f44;fill-opacity:1;fill-rule:nonzero;stroke:none"
             id="path116" />
        </g>
        <g
           id="g118"
           transform="translate(89.2324,81.877)">
          <path
             d="M 0,0 12.74,12.74 0,25.48 H 9.13 L 21.871,12.74 9.13,0 Z"
             style="fill:#ed4f44;fill-opacity:1;fill-rule:nonzero;stroke:none"
             id="path120" />
        </g>
        <g
           id="g122"
           transform="translate(92.4092,192.7871)">
          <path
             d="m 0,0 -4.216,-4.215 9.022,-9.023 h -24.532 v -5.965 H 4.806 l -9.022,-9.022 4.216,-4.216 16.222,16.22 z"
             style="fill:#18b8c4;fill-opacity:1;fill-rule:nonzero;stroke:none"
             id="path124" />
        </g>
        <path
           d="m 58.198,173.584 h 9.4 v 5.965 h -9.4 z"
           style="fill:#18b8c4;fill-opacity:1;fill-rule:nonzero;stroke:none"
           id="path126" />
        <path
           d="m 47.713,173.584 h 4.953 v 5.965 h -4.953 z"
           style="fill:#18b8c4;fill-opacity:1;fill-rule:nonzero;stroke:none"
           id="path128" />
        <g
           id="g130"
           transform="translate(455.2363,176.5664)">
          <path
             d="M 0,0 -19.057,19.057 V 2.982 h -14.769 v -5.964 h 14.769 v -16.075 z"
             style="fill:#18b8c4;fill-opacity:1;fill-rule:nonzero;stroke:none"
             id="path132" />
        </g>
        <path
           d="m 406.925,173.584 h 9.4 v 5.965 h -9.4 z"
           style="fill:#18b8c4;fill-opacity:1;fill-rule:nonzero;stroke:none"
           id="path134" />
        <path
           d="m 396.438,173.584 h 4.953 v 5.965 h -4.953 z"
           style="fill:#18b8c4;fill-opacity:1;fill-rule:nonzero;stroke:none"
           id="path136" />
        <g
           id="g138"
           transform="translate(335.7422,178.8809)">
          <path
             d="m 0,0 -11.68,11.68 c -1.141,1.14 -3.019,1.31 -4.219,0.228 -1.28,-1.15 -1.319,-3.123 -0.117,-4.326 l 5.294,-5.295 c 0.598,-0.598 0.175,-1.619 -0.671,-1.619 h -19.089 c -1.616,0 -3.062,-1.209 -3.147,-2.822 -0.09,-1.719 1.277,-3.143 2.978,-3.143 h 19.258 c 0.846,0 1.269,-1.021 0.671,-1.619 l -5.174,-5.176 c -1.142,-1.14 -1.31,-3.019 -0.23,-4.219 1.152,-1.279 3.125,-1.318 4.327,-0.117 L 0,-4.629 C 1.278,-3.35 1.278,-1.277 0,0"
             style="fill:#ed4f44;fill-opacity:1;fill-rule:nonzero;stroke:none"
             id="path140" />
        </g>
        <g
           id="g142"
           transform="translate(294.042,179.5488)">
          <path
             d="m 0,0 h -3.437 c -1.646,0 -2.982,-1.336 -2.982,-2.982 0,-1.647 1.336,-2.983 2.982,-2.983 H 0 c 1.646,0 2.981,1.336 2.981,2.983 C 2.981,-1.336 1.646,0 0,0"
             style="fill:#ed4f44;fill-opacity:1;fill-rule:nonzero;stroke:none"
             id="path144" />
        </g>
        <g
           id="g146"
           transform="translate(280.4404,179.5488)">
          <path
             d="m 0,0 h -0.321 c -1.647,0 -2.982,-1.336 -2.982,-2.982 0,-1.647 1.335,-2.983 2.982,-2.983 H 0 c 1.647,0 2.981,1.336 2.981,2.983 C 2.981,-1.336 1.647,0 0,0"
             style="fill:#ed4f44;fill-opacity:1;fill-rule:nonzero;stroke:none"
             id="path148" />
        </g>
        <g
           id="g150"
           transform="translate(212.709,189.1055)">
          <path
             d="m 0,0 h -9.029 l 9.556,-9.557 h -24.646 v -5.964 H 0.527 l -9.556,-9.557 H 0 l 12.54,12.539 z"
             style="fill:#404040;fill-opacity:1;fill-rule:nonzero;stroke:none"
             id="path152" />
        </g>
        <path
           d="m 174.104,173.584 h 9.4 v 5.965 h -9.4 z"
           style="fill:#404040;fill-opacity:1;fill-rule:nonzero;stroke:none"
           id="path154" />
        <path
           d="m 163.618,173.584 h 4.953 v 5.965 h -4.953 z"
           style="fill:#404040;fill-opacity:1;fill-rule:nonzero;stroke:none"
           id="path156" />
      </g>
    </g>
  </g>
</svg>
